src/Assets/Images/image7.svg

<svg width="108" height="108" viewBox="0 0 108 108" fill="none" xmlns="http://www.w3.org/2000/svg">
<path d="M76.1836 51.9837V67.2204C76.1836 82.0703 64.1453 94.1087 49.2953 94.1087H40.3326C25.4826 94.1087 13.4443 82.0703 13.4443 67.2204V51.9837C13.4443 50.4986 14.6482 49.2949 16.1332 49.2949H73.4947C74.9799 49.2949 76.1836 50.4986 76.1836 51.9837Z" stroke="#A57053" stroke-width="7.5" stroke-linecap="round" stroke-linejoin="round"/>
<path d="M53.7764 40.3321C53.7764 35.8508 56.9774 31.3694 63.3795 31.3694C70.4507 31.3694 76.1832 25.6368 76.1832 18.5655V15.6846" stroke="#9A3B3B" stroke-width="7.5" stroke-linecap="round" stroke-linejoin="round"/>
<path d="M35.8511 40.3326V38.0919C35.8511 30.6669 41.8702 24.6478 49.2952 24.6478C54.2453 24.6478 58.2579 20.635 58.2579 15.685V13.4443" stroke="#9A3B3B" stroke-width="7.5" stroke-linecap="round" stroke-linejoin="round"/>
<path d="M71.7021 49.2949H82.9056C89.093 49.2949 94.109 54.3109 94.109 60.4984C94.109 66.6858 89.093 71.7018 82.9056 71.7018H76.1835" stroke="#A57053" stroke-width="7.5" stroke-linecap="round" stroke-linejoin="round"/>
</svg>

<svg width="108" height="108" fill="none" xmlns="http://www.w3.org/2000/svg"><path d="M76.184 51.984V67.22c0 14.85-12.039 26.889-26.889 26.889h-8.962c-14.85 0-26.889-12.039-26.889-26.889V51.984a2.689 2.689 0 0 1 2.69-2.69h57.36a2.689 2.689 0 0 1 2.69 2.69Z" stroke="#A57053" stroke-width="7.5" stroke-linecap="round" stroke-linejoin="round"/><path d="M53.776 40.332c0-4.481 3.201-8.963 9.603-8.963 7.072 0 12.804-5.732 12.804-12.803v-2.881M35.851 40.333v-2.241c0-7.425 6.02-13.444 13.444-13.444a8.963 8.963 0 0 0 8.963-8.963v-2.24" stroke="#9A3B3B" stroke-width="7.5" stroke-linecap="round" stroke-linejoin="round"/><path d="M71.702 49.295h11.204c6.187 0 11.203 5.016 11.203 11.203 0 6.188-5.016 11.204-11.203 11.204h-6.723" stroke="#A57053" stroke-width="7.5" stroke-linecap="round" stroke-linejoin="round"/></svg>
